X: 231
T: Blackstone Valley (h'pipe)
N: 022174
C: BB 8/06
R: hornpipe
Q: 1/8 = 300
M: 4/4
L: 1/8
K: G
GA | "G"BABe dcBA | "G"GABG "Am"AGEF | "G"GBdB gfed | "C"ce"G"Bd "D"A2 GA|
"G"BABe dcBA | "G"GBAG "D7"FEDC | "G"B,DGB "C"CEGc | "D"(3ABA FA "G"G2 :|
EF| "Em"GEEG BEEB | "C"GFGA "D"BdAF | "Em"GEED "G"B,DGB | "D"ABGF "Em"E2 ga|
"G"bgfg "Em"edBd | "Am7"ecAG "D"FA (3DEF | "G"GB (3BAB "C"cedc | "D"(3ABA FA "G"G2 :|
%%%%%%%%%%%%%%%%%%%%
